icons/move-to-end-24.svg

<svg width="24" height="24" viewBox="0 0 24 24" fill="none" xmlns="http://www.w3.org/2000/svg">
<path fill-rule="evenodd" clip-rule="evenodd" d="M21.25 3.75C21.6642 3.75 22 4.08579 22 4.5V19.5C22 19.9142 21.6642 20.25 21.25 20.25C20.8358 20.25 20.5 19.9142 20.5 19.5V4.5C20.5 4.08579 20.8358 3.75 21.25 3.75ZM11.2197 5.21967C11.5126 4.92678 11.9874 4.92678 12.2803 5.21967L18.5303 11.4697C18.8232 11.7626 18.8232 12.2374 18.5303 12.5303L12.2803 18.7803C11.9874 19.0732 11.5126 19.0732 11.2197 18.7803C10.9268 18.4874 10.9268 18.0126 11.2197 17.7197L16.1893 12.75H1.75C1.33579 12.75 1 12.4142 1 12C1 11.5858 1.33579 11.25 1.75 11.25H16.1893L11.2197 6.28033C10.9268 5.98744 10.9268 5.51256 11.2197 5.21967Z" fill="black"/>
</svg>

<svg xmlns="http://www.w3.org/2000/svg" width="24" height="24" viewBox="0 0 24 24"><path d="M11.22 5.22a.749.749 0 0 1 1.06 0l6.25 6.25a.749.749 0 0 1 0 1.06l-6.25 6.25a.749.749 0 1 1-1.06-1.06l4.969-4.97H1.75a.75.75 0 0 1 0-1.5h14.439L11.22 6.28a.749.749 0 0 1 0-1.06Zm10.03-1.47a.75.75 0 0 1 .75.75v15a.75.75 0 0 1-1.5 0v-15a.75.75 0 0 1 .75-.75Z"/></svg>
